icons/hospice_fill.svg

<svg width="48" height="48" viewBox="0 0 48 48" fill="none" xmlns="http://www.w3.org/2000/svg">
<path fill-rule="evenodd" clip-rule="evenodd" d="M41.7083 23.7942L24.0579 6.08594L6.29405 23.7919C5.90289 24.1818 5.90185 24.8149 6.29174 25.2061C6.68163 25.5973 7.31479 25.5983 7.70595 25.2084L11 21.9251V41C11 41.5523 11.4477 42 12 42H19H29H36C36.5523 42 37 41.5523 37 41V21.9036L40.2917 25.2061C40.6816 25.5973 41.3148 25.5983 41.7059 25.2084C42.0971 24.8185 42.0981 24.1854 41.7083 23.7942ZM20.25 20.0001C17.7938 20.0001 16 22.6547 16 25.5174C16 26.2867 16.116 27.0228 16.3199 27.7223C16.4197 28.0645 16.5405 28.398 16.6791 28.7223C18.6112 33.2437 24 36.0001 24 36.0001C24 36.0001 32 31.6445 32 25.5174C32 22.6551 30.2065 20.0001 27.75 20.0001C26.0454 20.0001 24.7807 21.1912 24 22.8807C23.2193 21.1911 21.9545 20.0001 20.25 20.0001Z" fill="black"/>
</svg>

<svg
  xmlns="http://www.w3.org/2000/svg"
  width="24"
  height="24"
  viewBox="0 0 24 24"
  fill="none"
  stroke="currentColor"
  stroke-width="2"
  stroke-linecap="round"
  stroke-linejoin="round"
>
  <path
    fill-rule="evenodd"
    d="M41.708 23.794 24.058 6.086 6.294 23.792a1 1 0 1 0 1.412 1.416L11 21.925V41a1 1 0 0 0 1 1h24a1 1 0 0 0 1-1V21.904l3.292 3.302a1 1 0 1 0 1.416-1.412M20.25 20C17.794 20 16 22.655 16 25.517c0 .77.116 1.506.32 2.205q.15.513.36 1C18.61 33.244 24 36 24 36s8-4.355 8-10.483C32 22.655 30.206 20 27.75 20c-1.705 0-2.97 1.191-3.75 2.88-.78-1.689-2.046-2.88-3.75-2.88"
    clip-rule="evenodd"
  />
</svg>
